X: 22
T: No_2_I_Might_Starve.krn
N: Derived from No_2_I_Might_Starve.krn
%%abc-version 2.0
%%abcx-abcm2ps-target-version 5.9.1 (29 Sep 2008)
%%abc-creator hum2abc beta
%%abcx-conversion-date 2019/03/15 08:27:55
%%humdrum-veritas 2618813037
%%humdrum-veritas-data 1283068035
%%linebreak <none>
%%barnumbers 0
L: 1/8
M: 3/4
K: Db clef=bass
[K:clef=bass][M:3/4]z4z F3//C// | 
F2F/EF/ DB, | 
[M:2/4]FE/F/ EE | 
F/E/E3//B,// B,B, | 
B,B, B,/ z/ B, | 
B, z B,3/E/ ]|:  
EE/D/ E/ z/ F3//D// | 
[M:5/8]DB,/B,/B,B,F | 
[M:2/4]B,B, B,B, | 
F,F,/E,/ F,/F,/F, | 
[M:3/4]D,D, B,,/ z/ E, E,/D,3/ | 
F,/F,/D, F,D, B,,B,, | 
[M:2/4]B,,B,, B,,B,, | 
B,,B,, B,,B,, | 
z2B,3/E/ :|]  



